X: 25
T: Crow Lance Society Song
N: Derived from pawnee25.krn
O: Oklahoma, U.S.A.
N: from Pawnee Music by Frances Densmore, 1926
Z: transcribed to **kern format by David Huron, August 2000
C: Skidi and Chaui Bands, 1919
L: 1/16
M: 2/4
Q: 1/4=88
K: Ab clef=treble
%%linebreak <none>
C2 [I:setbarnb 1]| 
c8 | 
C2< B2 (5:4:5B A G F F/ | 
B4G4[M:3/4] | 
G2< F2F6G2[M:2/4] | 
F8- | 
F6A2[M:3/4] | 
G4G F2 F F E3[M:2/4] | 
C2> C2 C C2 C | 
C2 C2- C3 D | 
C2> C2C4 | 
C2< B,2 (5:4:5C G, F, F, F,/ | 
B,4G,4[M:3/4] | 
G,2< F,2F,6G,2[M:2/4] | 
F,6 :|]  



